X:1642
T:Bluebell Polka
S:Kerr's Merry Melodies v1 (1875)
N:Everybody thinks Jimmy Shand wrote this.  He isn't *that* old.
M:2/4
L:1/16
K:G
(3Bdg|b2b2 g>fg>e|d2d2B2 zG|F2A2   c2e2|ed^cd     B2
(3Bdg|b2b2 g>fg>e|d2d2B2 zG|FGAB   cdef|g2g2      g2:|
  z2 |A2A2 FAdf  |a2a2f4   |a2^g2 =g3e |b2 (3aba ^g2
  a2 |A2A2 FAdf  |a2a2f4   |a2^g2 =g3e |d2   d2   d2:|
(3Bdg|b2b2 g>fg>e|d2d2B2 zG|F2A2   c2e2|ed^cd B2
(3Bdg|b2b2 g>fg>e|d2d2B2 zG|FGAB   cdef|g2   g2   g2:|
K:C
  z2 |e2e2 efg2  |e2e2 efg2|f2f2   fdB2|fefg      fd
  B2 |e2e2 efg2  |e2e2 efg2|f2f2   fdBd|c2c2      c2:|
K:G
(3Bdg|b2b2 g>fg>e|d2d2B2 zG|F2A2   c2e2|ed^cd     B2
(3Bdg|b2b2 g>fg>e|d2d2B2 zG|FGAB   cdef|g2g2      g2:|


